layouts/icon-pack/armor_light_head.svg

<?xml version="1.0" encoding="UTF-8"?>
<svg width="1200pt" height="1200pt" version="1.1" viewBox="0 0 1200 1200" xmlns="http://www.w3.org/2000/svg">
 <g fill="#fff">
  <path d="m270.33 1120.3c27.531 15.453 58.57 23.574 90.141 23.578h50.648c4.5703 0.007813 8.6328-2.9102 10.082-7.2461 1.4531-4.332-0.03125-9.1094-3.6836-11.855-95.133-71.555-177.14-150.38-212.67-185.81-6.125-6.082-13.93-10.188-22.414-11.785-8.4805-1.6016-17.246-0.62109-25.164 2.8086-17.715 7.3477-34.031 17.695-48.234 30.586-5.2305 4.9492-8.3594 11.719-8.75 18.91-0.38672 7.1875 2 14.254 6.6641 19.738 40.875 48.07 115.55 94.359 163.38 121.08z"/>
  <path d="m272.3 914.86c48.703 59.391 119.7 117.42 165.05 151.88 5.4062 4.1094 12.152 6.0469 18.918 5.4336 6.7617-0.61719 13.047-3.7422 17.625-8.7578 4.5742-5.0156 7.1055-11.566 7.0977-18.355v-246.28c0.007813-20.16-8.1797-39.461-22.688-53.461l-116.11-111.7c-11.742-11.32-18.375-26.93-18.375-43.242v-48.328c-0.007812-7.0078 3.5312-13.539 9.4023-17.363 5.8711-3.8203 13.277-4.4141 19.684-1.5742l153.26 67.969c12.926 5.7188 22.57 16.98 26.227 30.633l11.531 43.008c2.4102 8.9531 7.707 16.867 15.066 22.508 7.3555 5.6445 16.371 8.707 25.645 8.7109h30.469c9.2734-0.003907 18.289-3.0664 25.645-8.7109 7.3594-5.6406 12.656-13.555 15.066-22.508l11.531-43.008c3.6797-13.719 13.398-25.016 26.414-30.703l153.26-67.969c6.4062-2.8398 13.812-2.2461 19.684 1.5742 5.8711 3.8242 9.4102 10.355 9.4023 17.363v48.328c0.042969 16.32-6.5547 31.957-18.281 43.312l-116.11 111.7c-14.488 13.984-22.68 33.254-22.688 53.391v246.35c-0.007813 6.7891 2.5234 13.34 7.0977 18.355 4.5781 5.0156 10.863 8.1406 17.625 8.7578 6.7656 0.61328 13.512-1.3242 18.918-5.4336 45.352-34.453 116.34-92.484 165.05-151.88 18.609-22.793 30.969-50.039 35.859-79.055 16.781-97.875 51.562-355.55-7.5-548.44-74.25-242.67-356.06-231.26-356.06-231.26s-281.81-11.414-356.06 231.33c-58.969 192.82-24.281 450.49-7.5 548.44 4.9023 28.992 17.262 56.211 35.859 78.984z"/>
  <path d="m995.16 939.05c-35.531 35.438-117.54 114.26-212.67 185.81-3.6523 2.7461-5.1367 7.5234-3.6836 11.855 1.4492 4.3359 5.5117 7.2539 10.082 7.2461h50.648c31.578-0.027344 62.617-8.1719 90.141-23.648 47.836-26.789 122.51-73.078 163.38-121.08 4.6641-5.4844 7.0508-12.551 6.6641-19.738-0.39062-7.1914-3.5195-13.961-8.75-18.91-14.203-12.891-30.52-23.238-48.234-30.586-7.9258-3.4219-16.695-4.3906-25.176-2.7773-8.4844 1.6133-16.285 5.7305-22.402 11.824z"/>
 </g>
</svg>

<?xml version="1.0" encoding="UTF-8" standalone="no"?>
<!DOCTYPE svg PUBLIC "-//W3C//DTD SVG 1.1//EN" "http://www.w3.org/Graphics/SVG/1.1/DTD/svg11.dtd">
<svg width="100%" height="100%" viewBox="0 0 471 512" version="1.1" xmlns="http://www.w3.org/2000/svg" xmlns:xlink="http://www.w3.org/1999/xlink" xml:space="preserve" xmlns:serif="http://www.serif.com/" style="fill-rule:evenodd;clip-rule:evenodd;stroke-linejoin:round;stroke-miterlimit:2;">
    <g transform="matrix(1,0,0,1,-100.245,-56.0207)">
        <g transform="matrix(0.470614,0,0,0.470614,53.0682,29.6566)">
            <path d="M270.33,1120.3C297.861,1135.75 328.9,1143.87 360.471,1143.88L411.119,1143.88C415.689,1143.89 419.752,1140.97 421.201,1136.63C422.654,1132.3 421.17,1127.52 417.517,1124.78C322.384,1053.22 240.377,974.397 204.847,938.967C198.722,932.885 190.917,928.779 182.433,927.182C173.953,925.58 165.187,926.561 157.269,929.99C139.554,937.338 123.238,947.685 109.035,960.576C103.805,965.526 100.676,972.295 100.285,979.486C99.899,986.674 102.285,993.74 106.95,999.224C147.825,1047.29 222.5,1093.58 270.33,1120.3L270.33,1120.3Z" style="fill:white;fill-rule:nonzero;"/>
            <path d="M272.3,914.86C321.003,974.251 392,1032.28 437.35,1066.74C442.756,1070.85 449.502,1072.79 456.268,1072.17C463.03,1071.56 469.315,1068.43 473.893,1063.42C478.467,1058.4 480.999,1051.85 480.991,1045.06L480.991,798.781C480.999,778.621 472.811,759.32 458.303,745.32L342.193,633.62C330.451,622.3 323.818,606.69 323.818,590.378L323.818,542.05C323.81,535.042 327.349,528.511 333.22,524.687C339.091,520.866 346.497,520.273 352.904,523.113L506.164,591.082C519.09,596.8 528.734,608.062 532.391,621.715L543.922,664.723C546.332,673.676 551.629,681.59 558.988,687.231C566.344,692.875 575.359,695.938 584.633,695.942L615.102,695.942C624.375,695.938 633.391,692.875 640.747,687.231C648.106,681.59 653.403,673.676 655.813,664.723L667.344,621.715C671.024,607.996 680.742,596.699 693.758,591.012L847.018,523.043C853.424,520.203 860.83,520.797 866.702,524.617C872.573,528.441 876.112,534.972 876.104,541.98L876.104,590.308C876.147,606.628 869.55,622.265 857.823,633.62L741.713,745.32C727.225,759.304 719.033,778.574 719.025,798.711L719.025,1045.06C719.017,1051.85 721.549,1058.4 726.123,1063.42C730.701,1068.43 736.986,1071.56 743.748,1072.17C750.514,1072.79 757.26,1070.85 762.666,1066.74C808.018,1032.29 879.006,974.256 927.716,914.86C946.325,892.067 958.685,864.821 963.575,835.805C980.356,737.93 1015.14,480.255 956.075,287.365C881.825,44.695 600.015,56.105 600.015,56.105C600.015,56.105 318.205,44.691 243.955,287.435C184.986,480.255 219.674,737.925 236.455,835.875C241.357,864.867 253.717,892.086 272.314,914.859L272.3,914.86Z" style="fill:white;fill-rule:nonzero;"/>
            <path d="M995.16,939.05C959.629,974.488 877.62,1053.31 782.49,1124.86C778.838,1127.61 777.353,1132.38 778.806,1136.71C780.256,1141.05 784.318,1143.97 788.888,1143.96L839.536,1143.96C871.114,1143.93 902.153,1135.79 929.677,1120.31C977.513,1093.52 1052.19,1047.24 1093.06,999.233C1097.72,993.749 1100.11,986.682 1099.72,979.495C1099.33,972.304 1096.2,965.534 1090.97,960.585C1076.77,947.694 1060.45,937.347 1042.74,929.999C1034.81,926.577 1026.04,925.609 1017.56,927.222C1009.08,928.835 1001.28,932.952 995.16,939.046L995.16,939.05Z" style="fill:white;fill-rule:nonzero;"/>
        </g>
    </g>
</svg>
